assets/icons/action/new_custom90.svg

<?xml version="1.0"?><svg xmlns="http://www.w3.org/2000/svg" width="52" height="52" viewBox="0 0 52 52"><g fill="#fff"><path d="m47.9 6.9l-19.5 2.8v27.5c0 0.5-0.3 0.8-0.8 0.8h-3.2c-0.5 0-0.8-0.3-0.8-0.8v-26.7l-18.8 2.8h-0.3c-1.2 0-2.2-0.9-2.4-2.1-0.2-1.3 0.7-2.6 1.9-2.7l14.9-2.2c1.4-2.5 4-4.2 7-4.2 2.2 0 4.2 0.9 5.6 2.3l15.7-2.2c1.3-0.2 2.6 0.7 2.7 2 0.2 1.2-0.6 2.4-2 2.7z m-28.8 29.4c0.6-0.7 0.7-1.6 0.3-2.5l-6.4-15.1c-0.3-0.9-1.2-1.4-2.2-1.4s-1.8 0.5-2.2 1.4l-6.4 15.2c-0.3 0.7-0.2 1.5 0.2 2.2 0.2 0.2 3.3 5 8.3 5 2.9 0 5.8-1.6 8.4-4.8z m-8.3-10.5l3.4 8.2h-6.8l3.4-8.2z m32.6-11.9c-0.4-0.9-1.3-1.4-2.2-1.4-1 0-1.8 0.6-2.2 1.4l-6.4 15.2c-0.3 0.7-0.2 1.5 0.2 2.2 0.2 0.2 3.3 5 8.3 5 3 0 5.8-1.6 8.4-4.8 0.6-0.7 0.7-1.6 0.3-2.5l-6.4-15.1z m-2.2 7.1l3.4 8.2h-6.9l3.5-8.2z m-15.2 21.8c-4.5 0-9 1.6-12.2 4.3-0.3 0.3-0.6 0.7-0.6 1.2v0.1c0 0.9 0.7 1.6 1.6 1.6h22.4c0.9 0 1.6-0.7 1.6-1.6v-0.1c0-0.5-0.2-0.9-0.6-1.2-3.2-2.7-7.7-4.3-12.2-4.3z"></path></g></svg>

<svg xmlns="http://www.w3.org/2000/svg" x="0px" y="0px"
	 width="52px" height="52px" viewBox="0 0 52 52" enable-background="new 0 0 52 52" xml:space="preserve">
<g>
	<path fill="#FFFFFF" d="M47.9,6.9L28.4,9.7v27.5c0,0.5-0.3,0.8-0.8,0.8h-3.2c-0.5,0-0.8-0.3-0.8-0.8V10.5L4.8,13.3
		c-0.2,0-0.2,0-0.3,0c-1.2,0-2.2-0.9-2.4-2.1C1.9,9.9,2.8,8.6,4,8.5l14.9-2.2c1.4-2.5,4-4.2,7-4.2c2.2,0,4.2,0.9,5.6,2.3l15.7-2.2
		c1.3-0.2,2.6,0.7,2.7,2C50.1,5.4,49.3,6.6,47.9,6.9z"/>
	<path fill="#FFFFFF" d="M19.1,36.3c0.6-0.7,0.7-1.6,0.3-2.5L13,18.7c-0.3-0.9-1.2-1.4-2.2-1.4S9,17.8,8.6,18.7L2.2,33.9
		c-0.3,0.7-0.2,1.5,0.2,2.2c0.2,0.2,3.3,5,8.3,5l0,0C13.6,41.1,16.5,39.5,19.1,36.3z M10.8,25.8l3.4,8.2H7.4L10.8,25.8z"/>
	<path fill="#FFFFFF" d="M43.4,13.9c-0.4-0.9-1.3-1.4-2.2-1.4c-1,0-1.8,0.6-2.2,1.4l-6.4,15.2c-0.3,0.7-0.2,1.5,0.2,2.2
		c0.2,0.2,3.3,5,8.3,5l0,0c3,0,5.8-1.6,8.4-4.8c0.6-0.7,0.7-1.6,0.3-2.5L43.4,13.9z M41.2,21l3.4,8.2h-6.9L41.2,21z"/>
	<path fill="#FFFFFF" d="M26,42.8c-4.5,0-9,1.6-12.2,4.3c-0.3,0.3-0.6,0.7-0.6,1.2v0.1c0,0.9,0.7,1.6,1.6,1.6h22.4
		c0.9,0,1.6-0.7,1.6-1.6v-0.1c0-0.5-0.2-0.9-0.6-1.2C35,44.4,30.5,42.8,26,42.8z"/>
</g>
</svg>
